X: 1
T:The Jenny Hoolet or Lizzie Mudie's Ghost
M:6/8
L:1/8
K:D
A|F>EDAAF|G>ABA2A/2A/2|d>cdBed|c>Bcd2d/2d/2|G>BddAF|G>EFG3||  (F>G)AF<Dz
|G>ABG<Ez|F>GAB>ed|c>Bcd2||
% Output from ABC2Win  Version 2.1 i on 3/9/2000
